X: 10632
T: Down And Out In Santiago De Compestella
R: mazurka
M: 3/4
K: Dmajor
|:fg "D" af (3fff|df "D" df (3fff|ef "A"ge (3eee|ce "A"ce (3eee|
AF "G"GA BG|GB "A"AB cA|1 AA "A"cd ec|fa "A"e4:|2 AA "A"Aa ge|cd "A"ec "D"d2||
ag "D"fd (3ddd|df "D"df (3fff|gf "A"ec (3ccc|ce "A" ce (3eee|
AB "G" dB (3BBB|Bd "G" Bd (3ddd|dB "A"AB cd|ef "A"g4||
ag "D"fd (3ddd|df "D"df (3fff|gf "A"ec (3ccc|ce "A" ce (3eee|
AB "G" GA BG|GB "A" AB cA|AA "A"Aa ge|cd "A"ec "D" d2||
|:A2 "D"~d2 fd|ec "D"d4|A2 "D"~d2 ed|cB "A" A4|
AF "G"GA BG|GB "A"AB cA|AA "A"cd ec|fa "A"e4|
A2 "D"~d2 fd|ec "D"d4|A2 "D"~d2 ed|cB "A" A4|
AF "G" GA BG|GB "A" AB cA|AA "A"Aa ge|cd "A"ec "D" d2:|

